www/assets/icons/sync_disabled.svg

<svg width="24" height="24" viewBox="0 0 24 24" xmlns="http://www.w3.org/2000/svg" fill='currentColor'><path d="M10.5701 5.78018V3.69018C9.77005 3.90018 9.02005 4.23018 8.34005 4.65018L9.80005 6.11018C10.0501 5.99018 10.3001 5.87018 10.5701 5.78018ZM3.43005 4.84018L5.79005 7.20018C5.02005 8.42018 4.57005 9.87018 4.57005 11.4302C4.57005 13.6402 5.48005 15.6302 6.93005 17.0702L4.57005 19.4302H10.5701V13.4302L8.33005 15.6702C7.25005 14.5802 6.57005 13.0902 6.57005 11.4302C6.57005 10.4302 6.82005 9.49018 7.25005 8.66018L15.3301 16.7402C15.0801 16.8702 14.8301 16.9902 14.5601 17.0802V19.1702C15.3601 18.9602 16.1101 18.6302 16.7901 18.2102L19.1501 20.5702L20.4201 19.3002L4.71005 3.57018L3.43005 4.84018ZM20.5701 3.43018H14.5701V9.43018L16.8101 7.19018C17.8901 8.28018 18.5701 9.77018 18.5701 11.4302C18.5701 12.4302 18.3201 13.3702 17.8901 14.2002L19.3501 15.6602C20.1201 14.4402 20.5701 12.9902 20.5701 11.4302C20.5701 9.22018 19.6601 7.23018 18.2101 5.79018L20.5701 3.43018Z"/></svg>

<svg xmlns="http://www.w3.org/2000/svg" width="24" height="24" viewBox="0 0 24 24" fill='currentColor'><path d="M10.57 5.78V3.69c-.8.21-1.55.54-2.23.96L9.8 6.11c.25-.12.5-.24.77-.33m-7.14-.94L5.79 7.2a7.925 7.925 0 0 0 1.14 9.87l-2.36 2.36h6v-6l-2.24 2.24a6 6 0 0 1-1.76-4.24c0-1 .25-1.94.68-2.77l8.08 8.08c-.25.13-.5.25-.77.34v2.09c.8-.21 1.55-.54 2.23-.96l2.36 2.36 1.27-1.27L4.71 3.57zm17.14-1.41h-6v6l2.24-2.24a6 6 0 0 1 1.76 4.24c0 1-.25 1.94-.68 2.77l1.46 1.46a7.926 7.926 0 0 0-1.14-9.87z"/></svg>
